X:311
T:My Mother (Mo Mhathair)
M:6/8
L:1/8
C:Neil MacLean
R:Slow Air
K:D
"A7"A2 G|"D"F D2 F2 A|"D7"f2 d e2 f|"G"d2 e d2 B|"D"B A2 B2 c|"D"d D2D2 D|"Bm"B2 B A2 F|"E7"E6-|"A7"E3 A2 G|
"D"F D2 F2 A|"D7"f2 d e2 f|"G"d2 e d2 B|"D"B A2 B2 c|"G"d D2 B2 d|"A7"A F2 E2 F|"D-G"D6-|"D"D3||
"A7"d2 e|"D"f A2 f2 e|"D7"d D2 F2 A|"G"B d2 d2 B|"D"B A2 d2 e|"D"f2 e d2 B|"Bm"A F2 E2 D|"E7"E6-|"A7"E3 A2 G|
"D"F D2 F2 A|"D7"f2 d e2 f|"G"d2 e d2 B|"D"B A2 B2 c|"G"d D2 B2 d|"A7"A F2 E2 F|"D-G"D6-|"D"D3||

